X:1
T: Lord McDonald
C:Lord McDonald
R:Strathspey
Q: 128
K:G
M:4/4
L:1/16
|:"composed a few days before his death"G4 G2D2 G3A G3D|GG3 g3e d3B A3B|GG3 gaba g3d eg3|dB3 g3B cBAG F2A2|
G4 G2D2 G3A G3D|GG3 g3e d3B A3B|GG3 gaba g3d eg3|dB3 g3B cBcd edef|
gfga g2d2 B2g2 d2g2|g3g agfe f3g a2b2|gaba g2e2 dB3 g3e|d3B cBAG F3G AB3|
G3g fgaf g3d BcdB|G3g gabg f3g a2b2|gaba bagf gfed efge|dB3 g3B cBAG A2B2:|
